svg/white/npxs.svg

<svg height="32" viewBox="0 0 32 32" width="32" xmlns="http://www.w3.org/2000/svg"><path d="m16 32c-8.836556 0-16-7.163444-16-16s7.163444-16 16-16 16 7.163444 16 16-7.163444 16-16 16zm-.0276923-28c-6.60000001 0-11.9723077 5.37230769-11.9723077 11.9723077 0 6.6 5.37230769 11.9815385 11.9815385 11.9815385 6.6092307 0 11.9815384-5.3723077 11.9815384-11.9815385 0-6.60923078-5.3815384-11.9723077-11.9907692-11.9723077zm0 23.0307692c-6.0923077 0-11.05846155-4.956923-11.05846155-11.0584615.00923077-6.0923077 4.96615385-11.04923078 11.05846155-11.04923078s11.0584615 4.95692308 11.0584615 11.05846158c0 6.0923077-4.956923 11.0492307-11.0584615 11.0492307zm-6.19838955-16.3741218 4.68644125 4.6864412.8811554-.8811554-4.6864413-4.6864412zm6.81805565 6.820524 4.6864413 4.6864412.8811554-.8811554-4.6864413-4.6864412zm-1.4956107-1.5021129.8876824.8876824.8811554-.8811554-.8876824-.8876824zm1.5085864-1.474536.8811554.8811553 4.6864413-4.6864412-.8811554-.88115537zm-6.79741935 6.788447.88115535.8811554 4.6864413-4.6864412-.8811554-.8811554z" fill="#fff"/></svg>

<?xml version="1.0" encoding="UTF-8"?>
<svg width="32px" height="32px" viewBox="0 0 32 32" version="1.1" xmlns="http://www.w3.org/2000/svg" xmlns:xlink="http://www.w3.org/1999/xlink">
    <!-- Generator: Sketch 50 (54983) - http://www.bohemiancoding.com/sketch -->
    <title>white/npxs</title>
    <desc>Created with Sketch.</desc>
    <defs></defs>
    <g id="white/npxs" stroke="none" stroke-width="1" fill="none" fill-rule="evenodd">
        <path d="M16,32 C7.163444,32 0,24.836556 0,16 C0,7.163444 7.163444,0 16,0 C24.836556,0 32,7.163444 32,16 C32,24.836556 24.836556,32 16,32 Z M15.9723077,4 C9.37230769,4 4,9.37230769 4,15.9723077 C4,22.5723077 9.37230769,27.9538462 15.9815385,27.9538462 C22.5907692,27.9538462 27.9630769,22.5815385 27.9630769,15.9723077 C27.9630769,9.36307692 22.5815385,4 15.9723077,4 Z M15.9723077,27.0307692 C9.88,27.0307692 4.91384615,22.0738462 4.91384615,15.9723077 C4.92307692,9.88 9.88,4.92307692 15.9723077,4.92307692 C22.0646154,4.92307692 27.0307692,9.88 27.0307692,15.9815385 C27.0307692,22.0738462 22.0738462,27.0307692 15.9723077,27.0307692 Z M9.77391815,10.6566474 L14.4603594,15.3430886 L15.3415148,14.4619332 L10.6550735,9.775492 L9.77391815,10.6566474 Z M16.5919738,17.4771714 L21.2784151,22.1636126 L22.1595705,21.2824572 L17.4731292,16.596016 L16.5919738,17.4771714 Z M15.0963631,15.9750585 L15.9840455,16.8627409 L16.8652009,15.9815855 L15.9775185,15.0939031 L15.0963631,15.9750585 Z M16.6049495,14.5005225 L17.4861049,15.3816778 L22.1725462,10.6952366 L21.2913908,9.81408123 L16.6049495,14.5005225 Z M9.80753015,21.2889695 L10.6886855,22.1701249 L15.3751268,17.4836837 L14.4939714,16.6025283 L9.80753015,21.2889695 Z" id="Combined-Shape" fill="#FFFFFF" fill-rule="nonzero"></path>
        <g id="Pundi-X-(NPXS)" transform="translate(4.000000, 4.000000)"></g>
    </g>
</svg>
